X:1367
T:Arap Ati
C:anon.
O:Turkey
Z:Transcribed by Frank Nordberg - http://www.musicaviva.com
F:http://abc.musicaviva.com/tunes/turkey/arap-ati.abc
M:2/4
L:1/16
K:Dphr
z2 gg .g2.g2|.g2.g2.g2.g2|.g2.g2 ~g3f|fegf f4:|z2 bb b~b2a|a~a2g g~g2f|
|:fegf feed|~d3B de.f2|fegf feed|d8|fegf feed|~d3B de.f2|fegf feed|d8:|
W:
W:
W:  From Musica Viva - http://www.musicaviva.com
W:  the Internet center for free sheet music downloads.
